!!!!SEGMENT: pl-wtm--r-252-m_moniuszko-stanislaw--matka-halki.krn
!!!cenid: 18xx:1658
!!!COM: Moniuszko, Stanisław
!!!COM-rism: pe30008351
!!!CDT: 1819/05/05-1872/06/04
!!!CNT: Polish
!!!OTL: Matka Halki
!!!PDT:
!!!AGN: Secular
!!!SMS-siglum: PL-Wtm
!!!SMS-shelfmark: R 252/M
!!!NIFC-rismID: 1001063789
!!!URL-scan: http://repozytorium.nifc.pl/skany/pl-wtm-nut--r229m
!!!ONB-nifc:
!!!SMS-variant:
!!!SMS-altvar:
**kern	**kern	**dynam	**kern	**text	**text	**text	**text
*part2	*part2	*part2	*part1	*part1	*part1	*part1	*part1
*staff3	*staff2	*	*staff1	*staff1	*staff1	*staff1	*staff1
*I"Fortepian	*I"Fortepian	*	*I"[Voice]	*	*	*	*
*I'pf	*pf	*	*I'V	*	*	*	*
*clefF4	*clefG2	*	*clefG2	*	*	*	*
*k[b-]	*k[b-]	*	*k[b-]	*	*	*	*
*M3/8	*M3/8	*	*M3/8	*	*	*	*
*>[A,A,A,A,B]	*>[A,A,A,A,B]	*	*>[A,A,A,A,B]	*	*	*	*
=1	=1	=1	=1	=1	=1	=1	=1
*>A	*>A	*	*>A	*	*	*	*
!	!	!	!LO:TX:a:i:t=Andantino	!	!	!	!
!	!	!	!LO:TX:a:i:t=34. Matka Halki.	!	!	!	!
4D 4DD\	4a 4d 4A</	.	4.r	.	.	.	.
8D 8DD\	8a 8d 8A</	.	.	.	.	.	.
=2	=2	=2	=2	=2	=2	=2	=2
4D 4DD\	4a 4d 4A</	.	4.r	.	.	.	.
8D 8DD\	8a 8d 8A</	.	.	.	.	.	.
=3	=3	=3	=3	=3	=3	=3	=3
4D 4DD\	4a 4d 4A</	.	4.r	.	.	.	.
8D 8DD\	8a 8d 8A</	.	.	.	.	.	.
=4	=4	=4	=4	=4	=4	=4	=4
.	.	.	(<16qqd/	.	.	.	.
!	!	!	!LO:TX:a:t=P:problem:w źródle czwarta zwrotka tekstu zapisana nad pięciolinią z partią głosu wokalnego	!	!	!	!
4D 4DD\	4a 4e 4c#X 4A</	.	16e/LL)	Bie-	Tak	Ma-	Fa-
.	.	.	16f/JJ	.	.	.	.
.	.	.	8g/	-dnaż	się	-leń-	-la
8D 8DD\	8a 8e 8c# 8A</	.	8g/	ja	ma-	-ką	o
=5	=5	=5	=5	=5	=5	=5	=5
4D 4DD\	4a 4f 4d 4A</	.	16f/LL	bie-	-leń-	mo-	fa-
.	.	.	16e/JJ	.	.	.	.
.	.	.	4d/	-dna	-ka	-ją	-la
8D 8DD\	8a 8f 8d 8c 8A</	.	.	.	.	.	.
=6	=6	=6	=6	=6	=6	=6	=6
!LO:TX:b:t=P:problem:znak powtórzenia między nutami	!	!	!	!	!	!	!
4AA/	4a 4e 4c#X 4A</	.	(<16e/	ty	wciąż	w o-	zwol-
.	.	.	16f/)	mnie	.	.	-na
.	.	.	8.a/	by-	do	-bję-	się
8AA/	8a 8e 8c# 8A</	.	.	.	.	.	.
.	.	.	16g/	-łaś	mnie	-cia	po-
=7	=7	=7	=7	=7	=7	=7	=7
4D 4DD\	4a 4f 4d 4A</	.	16f/LL	je-	tu-	swo-	-trą-
.	.	.	16e/JJ	.	.	.	.
.	.	.	8f/	-dna	-li	-je	-ci
8D\	8a 8f 8d 8A</	.	8r	.	.	.	.
!!LO:LB:g=original
=8	=8	=8	=8	=8	=8	=8	=8
4C/	4a 4e 4A/	.	16a/LL	mo-	a-	cze-	w ser-
.	.	.	16bn/JJ	.	.	.	.
.	.	.	8cc\	-ja	-le	-muś	-cu
8AA/	8a 8e 8c 8A/	.	8cc\	dzie-	wciąż	za-	się
=9	=9	=9	=9	=9	=9	=9	=9
!	!	!	!LO:TX:a:t=P:problem:takt poprawiany przez głównego skryptora; pierwotny zapis zakreślony i nieczytelny	!	!	!	!
4F 4FF\	4a 4c 4A/	.	16cc\LL	-ci-	stra-	-bra-	pa-
.	.	.	16bn\JJ	.	.	.	.
.	.	.	4a^^>\	-no	-szno	-ła	-li,
!	!LO:SIC:v:s=8Bn	!	!	!	!	!	!
8D\	8a 8f 8B-/	.	.	.	.	.	.
=10	=10	=10	=10	=10	=10	=10	=10
!	!LO:TX:b:t=ralent.	!	!	!	!	!	!
4E\	4a 4e 4c/	.	(<16a/	mo-	bie-	o	w gło-
.	.	.	16bn/)	-ja	.	.	.
.	.	.	8cc/	ty	-dnej	rzecz-	-wie
*	*	*	*Xtuplet	*	*	*	*
!	!LO:TX:a:t=P:problem:w źródle # przed kasownikiem	!	!	!	!	!	!
8G 8GG\	8gn 8d 8B-X/	.	24b-X/LL	je-	Ha-	-ko	się
.	.	.	24cc/	.	.	.	.
.	.	.	24b-/JJ	.	.	.	.
=11	=11	=11	=11	=11	=11	=11	=11
!	!LO:TX:b:t=a tempo.	!	!	!	!	!	!
!	!	!	!LO:TX:a:t=P:problem:nuta poprawiona przez głównego skryptora; przed poprawieniem była nuta 8bn/	!	!	!	!
4AA\	4e 4c#X 4A/	.	8a/	-dy-	-nu-	bia-	mą-
.	.	.	8a/	-no.	-li.	-ła.	-ci
8E 8AA\	8a 8e 8c# 8A/	.	8r	.	.	.	.
=12	=12	=12	=12	=12	=12	=12	=12
4E 4AA\	4a 4e 4A/	.	4.r	.	.	.	.
8E 8AA\	8a 8e 8A/	.	.	.	.	.	.
=13	=13	=13	=13	=13	=13	=13	=13
*^	*^	*	*	*	*	*	*
!	!	!	!	!LO:DY:b:t=p.	!	!	!	!	!
[>4.F/	4AA\	4cc/	4c\	p	(<16cc/LL	Pa-	oj	Cze-	Bié-
.	.	.	.	.	16a/JJ)	.	.	.	.
.	.	.	.	.	8f/	-nicz	bia-	-muś	-dnaż
.	8AA\	[>8cc/	8e-X\	.	8e-X/	po-	-ła	wy-	ja
=14	=14	=14	=14	=14	=14	=14	=14	=14	=14
!	!	!	!LO:TX:b:i:t=cres_ cen_ do.:problem:dynamics with line extensions	!LO:HP:b:i:t=cres_ cen_ do.:ext=ud	!	!	!	!	!
4F/]	4BB-\	16cc/LL]	4d\	<	4d/	-ko-	rze-	-dar-	bié-
.	.	16cc/JJ	.	.	.	.	.	.	.
.	.	8b-/L	.	.	.	.	.	.	.
8F#X/	8BB-\	8a/J	8d\	.	8d/	-chał,	-ko	-ła	-dna
!!LO:LB:g=original
=15	=15	=15	=15	=15	=15	=15	=15	=15	=15
!LO:N:vis=4	!	!	!	!	!	!	!	!	!
[>4.G/	4BB-\	4g/	4d\	.	16dd\LL	po-	pły-	mo-	by-
.	.	.	.	.	16b-\JJ	.	.	.	.
.	.	.	.	.	8.g/	-tem	-niesz	-ją	-łaś
.	8BBn\	[<8dd/	8f\	.	.	.	.	.	.
.	.	.	.	.	16f/	po-	da-	dzie-	mi
=16	=16	=16	=16	=16	=16	=16	=16	=16	=16
4G/]	4C\	16dd/LL]	4e-X\	.	4e-X/	-rzu-	-le-	-ci-	je-
.	.	16dd/J	.	.	.	.	.	.	.
.	.	8cc/	.	.	.	.	.	.	.
8G#X/	8C\	8bn/J	8e-\	[	8e-/	-cił	-ko,	-nę	-dna
*v	*v	*	*	*	*	*	*	*	*
=17	=17	=17	=17	=17	=17	=17	=17	=17
(>4A 4C\	(>4a/	4e-X\	f	16ee-X\LL	a	choć	i	mo-
!	!	!	!LO:HP:b	!	!	!	!	!
.	.	.	>	16cc\JJ	.	.	.	.
.	.	.	.	8.a/	jak	nie	u-	-ja
!LO:TX:a:t=P:problem:przed nutą 8CC krzyżyk (oryginalnie, ale błędnie, zapisany przez głównego skryptora) skreślony czerwoną kredką	!	!	!	!	!	!	!	!
8C 8CC/)	8g/)	8e- 8A\	.	.	.	.	.	.
.	.	.	]]	16g/	od-	sze-	-lu-	dzie-
=18	=18	=18	=18	=18	=18	=18	=18	=18
!	!	!	!LO:DY:rj:b	!	!	!	!	!
4BB#X 4BBB#X/	16f/LL	4d#X 4A\	pp	[>4.f#X/	-je-	-ro-	-la-	-ci-
.	16a/JJ	.	.	.	.	.	.	.
.	8a/L	.	.	.	.	.	.	.
8BB# 8BBB#/	8a/J	8d# 8A\	.	.	.	.	.	.
=19	=19	=19	=19	=19	=19	=19	=19	=19
4FF#X 4FFF#X/	16a/LL	4c#X 4A\	.	4f#/]	.	.	.	.
.	16g#X/JJ	.	.	.	.	.	.	.
.	(<8f#X/L	.	.	.	.	.	.	.
8FF#X/	8f#/J)	8c# 8A\	.	8f#y/	-chał,	-ko,	-ła	-no,
*	*v	*v	*	*	*	*	*	*
=20	=20	=20	=20	=20	=20	=20	=20
!	!	!	!LO:SIC:v:s=16f#	!	!	!	!
4BB#X 4BBB#X/	4f#X 4d#X 4A/	.	16f/LL	już	a-	mo-	mo-
.	.	.	16g#X/JJ	.	.	.	.
.	.	.	8a/	nie	-le	-ją	-ja
8BB# 8BBB#/	8f# 8d# 8A/	.	8a/	po-	głę-	je-	je-
=21	=21	=21	=21	=21	=21	=21	=21
4FF#X 4FFF#X/	4f#X 4c#X 4A/	.	16a/LL	-wró-	-bo-	-dy-	-dy-
.	.	.	16g#X/JJ	.	.	.	.
!	!	!	!LO:SIC:v:s=4f#	!	!	!	!
.	.	.	4f/	-cił	-ko	-nę	-no,
8FF# 8FFF#/	8f# 8c# 8A/	.	.	.	.	.	.
!!LO:LB:g=original
=22	=22	=22	=22	=22	=22	=22	=22
4.GG 4.GGG/	4.e 4.B- 4.G/	.	16e/LL	a	a-	i	mo-
.	.	.	16f/JJ	.	.	.	.
.	.	.	8g/	jak	-le	u-	-ja
.	.	.	8g/	od-	głę-	-lu-	dzie-
=23	=23	=23	=23	=23	=23	=23	=23
4.GG#X 4.GGG#X/	[>4.f [>4.d 4.Bn/	.	16f/LL	-je-	-bo-	-la-	-ci-
.	.	.	16e/JJ	.	.	.	.
.	.	.	4d/	-chał,	-ko,	-ła,	-no
=24	=24	=24	=24	=24	=24	=24	=24
8AA 8AAA/	4f] 4d] 4c 4A/	.	16d/LL	nie	głę-	je-	je-
.	.	.	16f/JJ	.	.	.	.
8rGG	.	.	4a/	wró-	-bo-	-dy-	-dy-
8AA\	8e 8c#X 8G</	.	.	.	.	.	.
=25	=25	=25	=25	=25	=25	=25	=25
!	!LO:TX:a:t=a tempo.	!	!	!	!	!	!
(>4AA 4DD\	4.d 4.A< 4.F</	.	4d/	-cił.	-ko.	-nę.	-no!
8d 8A 8F 8D\)	.	.	8r	.	.	.	.
=26	=26	=26	=26	=26	=26	=26	=26
4e-X 4B- 4G\	(<16b-LL 16g/	.	4.r	.	.	.	.
.	16ccJJ 16a/	.	.	.	.	.	.
.	8ddL 8b-/)	.	.	.	.	.	.
!	!	!	!LO:TX:b:i:t=3ci	!	!	!	!
!	!	!	!LO:TX:a:t=(x)	!	!	!	!
(>8e- 8B- 8G\	8ddJ 8b-'/	.	.	.	.	.	.
=27	=27	=27	=27	=27	=27	=27	=27
*	*	*	*^	*	*	*	*
*	*^	*	*	*	*	*	*	*
!	!	!	!	!LO:TX:t=P:problem:pozostale 2 wersje tego taktu zapisane pod utworem	!	!	!	!	!
!	!LO:TX:a:t=(x) 1.	!	!	!LO:TX:a:t=(x)\n3ci	!	!	!	!	!
.	.	.	.	.	8qff (<8qdd/	.	.	.	.
!	!	!	!	!LO:N:vis=2	!	!	!	!	!
4B- 4G 4C\)	(<16ddLL 16b-/	4en\	.	4.re	16ddLL 16b-/)	.	.	.	.
.	16ccJJ 16a/	.	.	.	16ccJJ 16a/	.	.	.	.
.	8b-L 8g/)	.	.	.	8b-L 8g/	.	.	.	.
8B- 8G 8C\	8b-J 8g/	8e\	.	.	8b-J 8g/	.	.	.	.
*	*	*	*	*v	*v	*	*	*	*
*	*v	*v	*	*	*	*	*	*
=28	=28	=28	=28	=28	=28	=28	=28
!	!	!	!LO:N:vis=1	!	!	!	!
4A 4F\	(<16aLL 16f/	.	4.r	.	.	.	.
.	16b-JJ 16g/	.	.	.	.	.	.
.	8ccL 8a/)	.	.	.	.	.	.
8A 8F\	8ccJ 8a/	.	.	.	.	.	.
=29	=29	=29	=29	=29	=29	=29	=29
.	(<8qcc 8qa/	.	.	.	.	.	.
!	!	!	!LO:N:vis=1	!	!	!	!
4B- 4F 4BB-\	4.f 4.d/)	.	4.r	.	.	.	.
8B- 8F 8BB-\	.	.	.	.	.	.	.
=30	=30	=30	=30	=30	=30	=30	=30
!	!	!	!LO:N:vis=1	!	!	!	!
4B- 4E\	(<16gLL 16e/	.	4.r	.	.	.	.
.	16aJJ 16f/	.	.	.	.	.	.
.	8b-L 8g/)	.	.	.	.	.	.
8B- 8E\	8b-J 8g'/	.	.	.	.	.	.
=31	=31	=31	=31	=31	=31	=31	=31
!	!	!	!LO:N:vis=1	!	!	!	!
4A 4AA\	16aLL 16f/	.	4.r	.	.	.	.
.	16gJJ 16e/	.	.	.	.	.	.
.	8fL 8d/	.	.	.	.	.	.
8A 8AA\	8aJ 8e 8A/	.	.	.	.	.	.
=32:|!	=32:|!	=32:|!	=32:|!	=32:|!	=32:|!	=32:|!	=32:|!
*>B	*>B	*	*>B	*	*	*	*
!	!	!	!LO:N:vis=1	!	!	!	!
4.D 4.AA 4.DD;>/	4.a 4.d 4.A;>/	.	4.r;>	.	.	.	.
==	==	==	==	==	==	==	==
*-	*-	*-	*-	*-	*-	*-	*-
!!!system-decoration: {(s1)(s2,s3)}
!!!RDF**kern: > = above
!!!RDF**kern: < = below
!!!EED: Antoni Szymański
!!!EST: 2021-04-15
!!!ENC: Tomasz Grochalski
!!!END: 2021-03-30
